!!!COM: Music21
!!!OTL: Aire de Pasarrúas
!!!OMV: pezas_pasacorredoiras_aire-de-pasarruas_aire-de-pasarruas-partitura.musicxml
**kern
*I"Bagpipes
*I'Bag
*clefG^2
*k[]
*M2/4
=1
!LO:TX:a:t=Allegretto
*MM110
!LO:TX:a:t=[quarter]=110
4.r
8gg
=||
8cccL
8ggJ
8eeL
8ddJ
=
4.cc
8dd
=
8eeL
8ffJ
16ggLL
16aa
16gg
16ffJJ
=
4.gg
8gg
=
8cccL
8ggJ
8eeL
8ddJ
=
4.cc
8cc
=
8ffL
8ddJ
16eeLL
16ff
16ee
16ddJJ
=
4.cc
8gg
!!linebreak:original
=
8cccL
8ggJ
8eeL
8ddJ
=
4.cc
8dd
=
8eeL
8ffJ
16ggLL
16aa
16gg
16ffJJ
=
4.gg
8gg
=
8cccL
8ggJ
8eeL
8ddJ
=
4.cc
8cc
=
8ddL
8bJ
[4cc
=
4.cc]
8gg
=||
8cccL
8ggJ
8eeL
8ddJ
!!linebreak:original
=
4.cc
8dd
=
8eeL
8ffJ
16ggLL
16aa
16gg
16ffJJ
=
4.gg
8gg
=
8cccL
8ggJ
8eeL
8ddJ
=
4.cc
8cc
=
8ffL
8ddJ
16eeLL
16ff
16ee
16ddJJ
=
4.cc
8gg
!!linebreak:original
=
8cccL
8ggJ
8eeL
8ddJ
=
4.cc
8dd
=
8eeL
8ffJ
16ggLL
16aa
16gg
16ffJJ
=
4.gg
8gg
=
8cccL
8ggJ
8eeL
8ddJ
=
4.cc
8cc
=
8ddL
8bJ
[4cc
=
2cc]
!!linebreak:original
=||
8ddL
8eeJ
8ffL
8ggJ
=
8aaL
8bbJ
8cccL
8bbJ
=
24aaLL
24bb
24aaJ
[8ggJ
4gg]
=
16ddLL
16ee
16dd
16ccJJ
8bL
8ccJ
=
8ddL
8eeJ
8ffL
8eeJ
=
24ddLL
24ee
24ddJ
[8ccJ
4cc]
=
8ddL
8eeJ
8ffL
8ggJ
=
8aaL
8bbJ
8cccL
8bbJ
!!linebreak:original
=
24aaLL
24bb
24aaJ
[8ggJ
4gg]
=
16ddLL
16ee
16dd
16ccJJ
8bL
8ccJ
=
8ddL
8eeJ
8ffL
8ddJ
=
2cc
!!linebreak:original
=||
8ddL
8eeJ
8ffL
8ggJ
=
8aaL
8bbJ
8cccL
8bbJ
=
24aaLL
24bb
24aaJ
[8ggJ
4gg]
=
16ddLL
16ee
16dd
16ccJJ
8bL
8ccJ
=
8ddL
8eeJ
8ffL
8eeJ
=
24ddLL
24ee
24ddJ
[8ccJ
4cc]
=
8ddL
8eeJ
8ffL
8ggJ
=
8aaL
8bbJ
8cccL
8bbJ
!!linebreak:original
=
24aaLL
24bb
24aaJ
[8ggJ
4gg]
=
16ddLL
16ee
16dd
16ccJJ
8bL
8ccJ
=
8ddL
8eeJ
8ffL
8ddJ
=||
4.cc
8gg
=||
[2cc
=
8cc]
8r
4r
==
*-
